src/lib/packages/icons/src/assets/filled/more-horizontal-square.svg

<svg xmlns="http://www.w3.org/2000/svg" width="24" height="24" fill="none"><path fill="currentColor" d="M17.625 3H6.375C4.125 3 3 4.125 3 6.375v11.25C3 19.875 4.125 21 6.375 21h11.25C19.875 21 21 19.875 21 17.625V6.375C21 4.125 19.875 3 17.625 3ZM8.021 13.25c-.69 0-1.255-.56-1.255-1.25s.555-1.25 1.245-1.25h.01a1.25 1.25 0 0 1 0 2.5Zm4 0c-.69 0-1.255-.56-1.255-1.25s.555-1.25 1.245-1.25h.01a1.25 1.25 0 0 1 0 2.5Zm4 0c-.69 0-1.255-.56-1.255-1.25s.555-1.25 1.245-1.25h.01a1.25 1.25 0 0 1 0 2.5Z"/></svg>

<svg width="24" height="24" viewBox="0 0 24 24" fill="none" xmlns="http://www.w3.org/2000/svg">
<path d="M17.625 3H6.375C4.125 3 3 4.125 3 6.375V17.625C3 19.875 4.125 21 6.375 21H17.625C19.875 21 21 19.875 21 17.625V6.375C21 4.125 19.875 3 17.625 3ZM8.021 13.25C7.331 13.25 6.76599 12.69 6.76599 12C6.76599 11.31 7.32099 10.75 8.01099 10.75H8.021C8.711 10.75 9.271 11.31 9.271 12C9.271 12.69 8.711 13.25 8.021 13.25ZM12.021 13.25C11.331 13.25 10.766 12.69 10.766 12C10.766 11.31 11.321 10.75 12.011 10.75H12.021C12.711 10.75 13.271 11.31 13.271 12C13.271 12.69 12.711 13.25 12.021 13.25ZM16.021 13.25C15.331 13.25 14.766 12.69 14.766 12C14.766 11.31 15.321 10.75 16.011 10.75H16.021C16.711 10.75 17.271 11.31 17.271 12C17.271 12.69 16.711 13.25 16.021 13.25Z" fill="currentColor"/>
</svg>
